X:1992
T:Five Mile Chase, The
O:england
R:reel
M:C|
K:G
G2BG dGBG|FADA FADA|G2BG dG (3Bcd|1 egfa gedB:|2 egfa ~g3f||
gd (3Bcd ed (3Bcd|g2bg agef|gd (3Bcd ed (3Bcd|egfa ~g3f|
gabg efge|dedc Bcd2|~e3f edBd|egfa gedB||


